src/ui/lab.svg

<?xml version="1.0" encoding="UTF-8"?><svg xmlns="http://www.w3.org/2000/svg" viewBox="0 0 32 32"><defs><style>.uuid-e9dbb908-9e42-4769-9557-2be6c99f347c{fill:none;}.uuid-e9dbb908-9e42-4769-9557-2be6c99f347c,.uuid-8f45a92d-e19a-470b-acd7-11539fd8f36d{stroke-width:0px;}.uuid-8f45a92d-e19a-470b-acd7-11539fd8f36d{fill:#151515;}</style></defs><g id="uuid-d744ca65-4fc7-4194-8a1e-440ce4a912df"><rect class="uuid-e9dbb908-9e42-4769-9557-2be6c99f347c" x="0" width="32" height="32"/></g><g id="uuid-2ab3748f-1d63-4136-926e-8b33e5bc73d2"><path class="uuid-8f45a92d-e19a-470b-acd7-11539fd8f36d" d="M28.0347,25.373l-7.0347-15.7998V3h1c.5522,0,1-.4478,1-1s-.4478-1-1-1h-1.5c-.8271,0-1.5.6729-1.5,1.5v7.2856c0,.1401.0293.2788.0864.4067l3.0309,6.8076h-12.2347l3.0309-6.8076c.0571-.1279.0864-.2666.0864-.4067V2.5c0-.8271-.6729-1.5-1.5-1.5h-1.5098c-.5522,0-1,.4478-1,1s.4478,1,1,1h1.0098v6.5732l-7.0347,15.7998c-.5532,1.2422-.4409,2.665.2998,3.8057.7402,1.1401,1.9946,1.8213,3.3545,1.8213h16.7607c1.3599,0,2.6143-.6812,3.3545-1.8213.7407-1.1406.853-2.5635.2998-3.8057ZM26.0576,28.0894c-.376.5786-.9873.9106-1.6772.9106H7.6196c-.6899,0-1.3013-.332-1.6772-.9106-.376-.5791-.4307-1.2725-.1499-1.9028l3.1996-7.1865h14.0157l3.1996,7.1865c.2808.6304.2261,1.3237-.1499,1.9028Z"/></g></svg>

<svg xmlns="http://www.w3.org/2000/svg" viewBox="0 0 32 32">
  <path d="M0 0h32v32H0z" fill="none"/>
  <path d="M28.035 25.373 21 9.573V3h1a1 1 0 0 0 0-2h-1.5c-.827 0-1.5.673-1.5 1.5v7.286c0 .14.03.278.086.406L22.117 17H9.883l3.03-6.808A.998.998 0 0 0 13 9.786V2.5c0-.827-.673-1.5-1.5-1.5H9.99a1 1 0 0 0 0 2H11v6.573l-7.035 15.8a3.986 3.986 0 0 0 .3 3.806A3.986 3.986 0 0 0 7.619 31H24.38c1.36 0 2.614-.681 3.355-1.821a3.99 3.99 0 0 0 .3-3.806Zm-1.977 2.716A1.968 1.968 0 0 1 24.38 29H7.62a1.97 1.97 0 0 1-1.678-.91 1.967 1.967 0 0 1-.15-1.903L8.992 19h14.016l3.2 7.187c.28.63.226 1.323-.15 1.902Z" fill="#151515"/>
</svg>
